assets/svg/icon-redpoint.svg

<?xml version="1.0" encoding="UTF-8" standalone="no"?>
<svg width="64px" height="64px" viewBox="0 0 64 64" version="1.1" xmlns="http://www.w3.org/2000/svg" xmlns:xlink="http://www.w3.org/1999/xlink">
    <!-- Generator: Sketch 3.8.3 (29802) - http://www.bohemiancoding.com/sketch -->
    <title>blue/icon-redpoint</title>
    <desc>Created with Sketch.</desc>
    <defs></defs>
    <g id="blue,-base" stroke="none" stroke-width="1" fill="none" fill-rule="evenodd">
        <g id="icons,-branding-&amp;-other-(blue)" transform="translate(-413.000000, -531.000000)" fill="#D93939">
            <g id="blue/icon-redpoint" transform="translate(413.000000, 531.000000)">
                <path d="M54.4953547,51.1445564 C57.6231964,47.4728263 59.8679725,43.0257745 60.9011574,38.1319265 L42.4615385,19.6923076 L24.6153842,32.6153844 L12.6153847,27.0769229 L3.49834473,39.7855236 C4.72498211,44.2865692 6.98934509,48.3596898 10.0184819,51.7319339 L12.6153847,47.6923075 L23.0769232,46.4615382 L33.8461536,36.9230768 L42.1538459,44.3076921 L49.5384611,41.230769 L54.4953547,51.1445564 L54.4953547,51.1445564 L54.4953547,51.1445564 Z M32,64 C49.6731117,64 64,49.6731117 64,31.9999999 C64,14.326888 49.6731117,0 32,0 C14.3268883,0 0,14.326888 0,31.9999999 C0,49.6731117 14.3268883,64 32,64 L32,64 L32,64 Z M18.7692308,58.4615382 C25.2307694,62.1538459 34.7692308,62.1538459 41.2307688,60.307692 C47.6923074,58.4615382 52.6153844,53.230769 52.6153844,53.230769 L48.6153845,45.230769 L41.2307688,47.6923075 L33.8461536,40.6153844 L24.3076923,49.230769 L14.4615383,50.153846 L12.3076921,53.5384613 C12.3076921,53.5384613 12.3076921,54.7692305 18.7692308,58.4615382 L18.7692308,58.4615382 L18.7692308,58.4615382 Z" id="icon-redpoint-small"></path>
            </g>
        </g>
    </g>
</svg>

<svg width="64" height="64" viewBox="0 0 64 64" xmlns="http://www.w3.org/2000/svg"><title>blue/icon-redpoint</title><path d="M54.495 51.145a29.438 29.438 0 0 0 6.406-13.013l-18.44-18.44-17.846 12.923-12-5.538-9.117 12.709a29.48 29.48 0 0 0 6.52 11.946l2.597-4.04 10.462-1.23 10.77-9.539 8.307 7.385 7.384-3.077 4.957 9.914zM32 64c17.673 0 32-14.327 32-32C64 14.327 49.673 0 32 0 14.327 0 0 14.327 0 32c0 17.673 14.327 32 32 32zm-13.23-5.538c6.46 3.692 16 3.692 22.46 1.846 6.462-1.846 11.385-7.077 11.385-7.077l-4-8-7.384 2.461-7.385-7.077-9.538 8.616-9.846.923-2.154 3.384s0 1.231 6.461 4.924z" fill="#D93939" fill-rule="evenodd"/></svg>
